Numix-Circle/48x48/apps/DeSmuME.svg

<svg viewBox="0 0 48 48"><defs><linearGradient id="linearGradient3764" x1="1" x2="47" gradientUnits="userSpaceOnUse" gradientTransform="matrix(0,-1,1,0,-1.5e-6,47.999998)"><stop stop-color="#e3544d" stop-opacity="1"/><stop offset="1" stop-color="#e6645f" stop-opacity="1"/></linearGradient><clipPath id="clipPath-781953493"><g transform="translate(0,-1004.3622)"><path d="m -24 13 c 0 1.105 -0.672 2 -1.5 2 -0.828 0 -1.5 -0.895 -1.5 -2 0 -1.105 0.672 -2 1.5 -2 0.828 0 1.5 0.895 1.5 2 z" transform="matrix(15.333333,0,0,11.5,414.99999,878.8622)" fill="#1890d0"/></g></clipPath><clipPath id="clipPath-796067502"><g transform="translate(0,-1004.3622)"><path d="m -24 13 c 0 1.105 -0.672 2 -1.5 2 -0.828 0 -1.5 -0.895 -1.5 -2 0 -1.105 0.672 -2 1.5 -2 0.828 0 1.5 0.895 1.5 2 z" transform="matrix(15.333333,0,0,11.5,414.99999,878.8622)" fill="#1890d0"/></g></clipPath></defs><g><path d="m 36.31 5 c 5.859 4.062 9.688 10.831 9.688 18.5 c 0 12.426 -10.07 22.5 -22.5 22.5 c -7.669 0 -14.438 -3.828 -18.5 -9.688 c 1.037 1.822 2.306 3.499 3.781 4.969 c 4.085 3.712 9.514 5.969 15.469 5.969 c 12.703 0 23 -10.298 23 -23 c 0 -5.954 -2.256 -11.384 -5.969 -15.469 c -1.469 -1.475 -3.147 -2.744 -4.969 -3.781 z m 4.969 3.781 c 3.854 4.113 6.219 9.637 6.219 15.719 c 0 12.703 -10.297 23 -23 23 c -6.081 0 -11.606 -2.364 -15.719 -6.219 c 4.16 4.144 9.883 6.719 16.219 6.719 c 12.703 0 23 -10.298 23 -23 c 0 -6.335 -2.575 -12.06 -6.719 -16.219 z" opacity="0.05"/><path d="m 41.28 8.781 c 3.712 4.085 5.969 9.514 5.969 15.469 c 0 12.703 -10.297 23 -23 23 c -5.954 0 -11.384 -2.256 -15.469 -5.969 c 4.113 3.854 9.637 6.219 15.719 6.219 c 12.703 0 23 -10.298 23 -23 c 0 -6.081 -2.364 -11.606 -6.219 -15.719 z" opacity="0.1"/><path d="m 31.25 2.375 c 8.615 3.154 14.75 11.417 14.75 21.13 c 0 12.426 -10.07 22.5 -22.5 22.5 c -9.708 0 -17.971 -6.135 -21.12 -14.75 a 23 23 0 0 0 44.875 -7 a 23 23 0 0 0 -16 -21.875 z" opacity="0.2"/></g><g><path d="m 24 1 c 12.703 0 23 10.297 23 23 c 0 12.703 -10.297 23 -23 23 -12.703 0 -23 -10.297 -23 -23 0 -12.703 10.297 -23 23 -23 z" fill="url(#linearGradient3764)" fill-opacity="1"/></g><g/><g><g clip-path="url(#clipPath-781953493)"><g transform="translate(1,1)"><g opacity="0.1"><!-- color: #e6645f --><g><path d="m 14 12 l 20 0 c 1.105 0 2 0.895 2 2 l 0 20 c 0 1.105 -0.895 2 -2 2 l -20 0 c -1.105 0 -2 -0.895 -2 -2 l 0 -20 c 0 -1.105 0.895 -2 2 -2 m 0 0" fill="#000" stroke="none" fill-rule="nonzero" fill-opacity="1"/><path d="m 12.434 23 l 23.13 0 c 0.238 0 0.434 0.191 0.434 0.434 l 0 1.133 c 0 0.238 -0.188 0.43 -0.434 0.43 l -23.13 0 c -0.238 0 -0.434 -0.191 -0.434 -0.43 l 0 -1.133 c 0 -0.242 0.195 -0.434 0.434 -0.434 m 0 0" fill="#000" stroke="none" fill-rule="nonzero" fill-opacity="1"/><path d="m 15 29 l 0.996 0 l 0 2.988 l -0.996 0 m 0 -2.988" fill="#000" stroke="none" fill-rule="nonzero" fill-opacity="1"/><path d="m 14 30 l 3 0 l 0 1 l -3 0 m 0 -1" fill="#000" stroke="none" fill-rule="nonzero" fill-opacity="1"/><path d="m 33 29.5 c 0 0.277 -0.223 0.5 -0.5 0.5 c -0.277 0 -0.5 -0.223 -0.5 -0.5 c 0 -0.277 0.223 -0.5 0.5 -0.5 c 0.277 0 0.5 0.223 0.5 0.5 m 0 0" fill="#000" stroke="none" fill-rule="nonzero" fill-opacity="1"/><path d="m 34 30.5 c 0 0.277 -0.223 0.5 -0.5 0.5 c -0.277 0 -0.5 -0.223 -0.5 -0.5 c 0 -0.277 0.223 -0.5 0.5 -0.5 c 0.277 0 0.5 0.223 0.5 0.5 m 0 0" fill="#000" stroke="none" fill-rule="nonzero" fill-opacity="1"/><path d="m 32 30.5 c 0 0.277 -0.223 0.5 -0.5 0.5 c -0.277 0 -0.5 -0.223 -0.5 -0.5 c 0 -0.277 0.223 -0.5 0.5 -0.5 c 0.277 0 0.5 0.223 0.5 0.5 m 0 0" fill="#000" stroke="none" fill-rule="nonzero" fill-opacity="1"/><path d="m 33 31.5 c 0 0.277 -0.223 0.5 -0.5 0.5 c -0.277 0 -0.5 -0.223 -0.5 -0.5 c 0 -0.277 0.223 -0.5 0.5 -0.5 c 0.277 0 0.5 0.223 0.5 0.5 m 0 0" fill="#000" stroke="none" fill-rule="nonzero" fill-opacity="1"/><path d="m 31 26 l 2 0 l 0 1 l -2 0 m 0 -1" fill="#000" stroke="none" fill-rule="nonzero" fill-opacity="1"/><path d="m 17 14 l 14 0 l 0 8 l -14 0 m 0 -8" fill="#000" stroke="none" fill-rule="nonzero" fill-opacity="1"/><path d="m 18 26 l 12 0 l 0 8 l -12 0 m 0 -8" fill="#000" stroke="none" fill-rule="nonzero" fill-opacity="1"/><path d="m 29 17 l 1.996 0 l 0 1 l -1.996 0 m 0 -1" fill="#000" stroke="none" fill-rule="nonzero" fill-opacity="1"/><path d="m 15 26 l 1.996 0 l 0 1 l -1.996 0 m 0 -1" fill="#000" stroke="none" fill-rule="nonzero" fill-opacity="1"/><path d="m 33 16.5 c 0 0.277 -0.223 0.5 -0.5 0.5 c -0.277 0 -0.5 -0.223 -0.5 -0.5 c 0 -0.277 0.223 -0.5 0.5 -0.5 c 0.277 0 0.5 0.223 0.5 0.5 m 0 0" fill="#000" stroke="none" fill-rule="nonzero" fill-opacity="1"/><path d="m 34 16.5 c 0 0.277 -0.223 0.5 -0.5 0.5 c -0.277 0 -0.5 -0.223 -0.5 -0.5 c 0 -0.277 0.223 -0.5 0.5 -0.5 c 0.277 0 0.5 0.223 0.5 0.5 m 0 0" fill="#000" stroke="none" fill-rule="nonzero" fill-opacity="1"/><path d="m 33 17.5 c 0 0.277 -0.223 0.5 -0.5 0.5 c -0.277 0 -0.5 -0.223 -0.5 -0.5 c 0 -0.277 0.223 -0.5 0.5 -0.5 c 0.277 0 0.5 0.223 0.5 0.5 m 0 0" fill="#000" stroke="none" fill-rule="nonzero" fill-opacity="1"/><path d="m 34 17.5 c 0 0.277 -0.223 0.5 -0.5 0.5 c -0.277 0 -0.5 -0.223 -0.5 -0.5 c 0 -0.277 0.223 -0.5 0.5 -0.5 c 0.277 0 0.5 0.223 0.5 0.5 m 0 0" fill="#000" stroke="none" fill-rule="nonzero" fill-opacity="1"/><path d="m 33 18.5 c 0 0.277 -0.223 0.5 -0.5 0.5 c -0.277 0 -0.5 -0.223 -0.5 -0.5 c 0 -0.277 0.223 -0.5 0.5 -0.5 c 0.277 0 0.5 0.223 0.5 0.5 m 0 0" fill="#000" stroke="none" fill-rule="nonzero" fill-opacity="1"/><path d="m 34 18.5 c 0 0.277 -0.223 0.5 -0.5 0.5 c -0.277 0 -0.5 -0.223 -0.5 -0.5 c 0 -0.277 0.223 -0.5 0.5 -0.5 c 0.277 0 0.5 0.223 0.5 0.5 m 0 0" fill="#000" stroke="none" fill-rule="nonzero" fill-opacity="1"/><path d="m 15 16.5 c 0 0.277 -0.223 0.5 -0.5 0.5 c -0.277 0 -0.5 -0.223 -0.5 -0.5 c 0 -0.277 0.223 -0.5 0.5 -0.5 c 0.277 0 0.5 0.223 0.5 0.5 m 0 0" fill="#000" stroke="none" fill-rule="nonzero" fill-opacity="1"/><path d="m 16 16.5 c 0 0.277 -0.223 0.5 -0.5 0.5 c -0.277 0 -0.5 -0.223 -0.5 -0.5 c 0 -0.277 0.223 -0.5 0.5 -0.5 c 0.277 0 0.5 0.223 0.5 0.5 m 0 0" fill="#000" stroke="none" fill-rule="nonzero" fill-opacity="1"/><path d="m 15 17.5 c 0 0.277 -0.223 0.5 -0.5 0.5 c -0.277 0 -0.5 -0.223 -0.5 -0.5 c 0 -0.277 0.223 -0.5 0.5 -0.5 c 0.277 0 0.5 0.223 0.5 0.5 m 0 0" fill="#000" stroke="none" fill-rule="nonzero" fill-opacity="1"/><path d="m 16 17.5 c 0 0.277 -0.223 0.5 -0.5 0.5 c -0.277 0 -0.5 -0.223 -0.5 -0.5 c 0 -0.277 0.223 -0.5 0.5 -0.5 c 0.277 0 0.5 0.223 0.5 0.5 m 0 0" fill="#000" stroke="none" fill-rule="nonzero" fill-opacity="1"/><path d="m 15 18.5 c 0 0.277 -0.223 0.5 -0.5 0.5 c -0.277 0 -0.5 -0.223 -0.5 -0.5 c 0 -0.277 0.223 -0.5 0.5 -0.5 c 0.277 0 0.5 0.223 0.5 0.5 m 0 0" fill="#000" stroke="none" fill-rule="nonzero" fill-opacity="1"/><path d="m 16 18.5 c 0 0.277 -0.223 0.5 -0.5 0.5 c -0.277 0 -0.5 -0.223 -0.5 -0.5 c 0 -0.277 0.223 -0.5 0.5 -0.5 c 0.277 0 0.5 0.223 0.5 0.5 m 0 0" fill="#000" stroke="none" fill-rule="nonzero" fill-opacity="1"/></g></g></g></g></g><g><g clip-path="url(#clipPath-796067502)"><!-- color: #e6645f --><g><path d="m 14 12 l 20 0 c 1.105 0 2 0.895 2 2 l 0 20 c 0 1.105 -0.895 2 -2 2 l -20 0 c -1.105 0 -2 -0.895 -2 -2 l 0 -20 c 0 -1.105 0.895 -2 2 -2 m 0 0" fill="#f9f9f9" stroke="none" fill-rule="nonzero" fill-opacity="1"/><path d="m 12.434 23 l 23.13 0 c 0.238 0 0.434 0.191 0.434 0.434 l 0 1.133 c 0 0.238 -0.188 0.43 -0.434 0.43 l -23.13 0 c -0.238 0 -0.434 -0.191 -0.434 -0.43 l 0 -1.133 c 0 -0.242 0.195 -0.434 0.434 -0.434 m 0 0" fill="#695353" stroke="none" fill-rule="nonzero" fill-opacity="1"/><path d="m 15 29 l 0.996 0 l 0 2.988 l -0.996 0 m 0 -2.988" fill="#695353" stroke="none" fill-rule="nonzero" fill-opacity="1"/><path d="m 14 30 l 3 0 l 0 1 l -3 0 m 0 -1" fill="#695353" stroke="none" fill-rule="nonzero" fill-opacity="1"/><path d="m 33 29.5 c 0 0.277 -0.223 0.5 -0.5 0.5 c -0.277 0 -0.5 -0.223 -0.5 -0.5 c 0 -0.277 0.223 -0.5 0.5 -0.5 c 0.277 0 0.5 0.223 0.5 0.5 m 0 0" fill="#695353" stroke="none" fill-rule="nonzero" fill-opacity="1"/><path d="m 34 30.5 c 0 0.277 -0.223 0.5 -0.5 0.5 c -0.277 0 -0.5 -0.223 -0.5 -0.5 c 0 -0.277 0.223 -0.5 0.5 -0.5 c 0.277 0 0.5 0.223 0.5 0.5 m 0 0" fill="#695353" stroke="none" fill-rule="nonzero" fill-opacity="1"/><path d="m 32 30.5 c 0 0.277 -0.223 0.5 -0.5 0.5 c -0.277 0 -0.5 -0.223 -0.5 -0.5 c 0 -0.277 0.223 -0.5 0.5 -0.5 c 0.277 0 0.5 0.223 0.5 0.5 m 0 0" fill="#695353" stroke="none" fill-rule="nonzero" fill-opacity="1"/><path d="m 33 31.5 c 0 0.277 -0.223 0.5 -0.5 0.5 c -0.277 0 -0.5 -0.223 -0.5 -0.5 c 0 -0.277 0.223 -0.5 0.5 -0.5 c 0.277 0 0.5 0.223 0.5 0.5 m 0 0" fill="#695353" stroke="none" fill-rule="nonzero" fill-opacity="1"/><path d="m 31 26 l 2 0 l 0 1 l -2 0 m 0 -1" fill="#695353" stroke="none" fill-rule="nonzero" fill-opacity="1"/><path d="m 17 14 l 14 0 l 0 8 l -14 0 m 0 -8" fill="#695353" stroke="none" fill-rule="nonzero" fill-opacity="1"/><path d="m 18 26 l 12 0 l 0 8 l -12 0 m 0 -8" fill="#695353" stroke="none" fill-rule="nonzero" fill-opacity="1"/><path d="m 29 17 l 1.996 0 l 0 1 l -1.996 0 m 0 -1" fill="#695353" stroke="none" fill-rule="nonzero" fill-opacity="1"/><path d="m 15 26 l 1.996 0 l 0 1 l -1.996 0 m 0 -1" fill="#695353" stroke="none" fill-rule="nonzero" fill-opacity="1"/><path d="m 33 16.5 c 0 0.277 -0.223 0.5 -0.5 0.5 c -0.277 0 -0.5 -0.223 -0.5 -0.5 c 0 -0.277 0.223 -0.5 0.5 -0.5 c 0.277 0 0.5 0.223 0.5 0.5 m 0 0" fill="#695353" stroke="none" fill-rule="nonzero" fill-opacity="1"/><path d="m 34 16.5 c 0 0.277 -0.223 0.5 -0.5 0.5 c -0.277 0 -0.5 -0.223 -0.5 -0.5 c 0 -0.277 0.223 -0.5 0.5 -0.5 c 0.277 0 0.5 0.223 0.5 0.5 m 0 0" fill="#695353" stroke="none" fill-rule="nonzero" fill-opacity="1"/><path d="m 33 17.5 c 0 0.277 -0.223 0.5 -0.5 0.5 c -0.277 0 -0.5 -0.223 -0.5 -0.5 c 0 -0.277 0.223 -0.5 0.5 -0.5 c 0.277 0 0.5 0.223 0.5 0.5 m 0 0" fill="#695353" stroke="none" fill-rule="nonzero" fill-opacity="1"/><path d="m 34 17.5 c 0 0.277 -0.223 0.5 -0.5 0.5 c -0.277 0 -0.5 -0.223 -0.5 -0.5 c 0 -0.277 0.223 -0.5 0.5 -0.5 c 0.277 0 0.5 0.223 0.5 0.5 m 0 0" fill="#695353" stroke="none" fill-rule="nonzero" fill-opacity="1"/><path d="m 33 18.5 c 0 0.277 -0.223 0.5 -0.5 0.5 c -0.277 0 -0.5 -0.223 -0.5 -0.5 c 0 -0.277 0.223 -0.5 0.5 -0.5 c 0.277 0 0.5 0.223 0.5 0.5 m 0 0" fill="#695353" stroke="none" fill-rule="nonzero" fill-opacity="1"/><path d="m 34 18.5 c 0 0.277 -0.223 0.5 -0.5 0.5 c -0.277 0 -0.5 -0.223 -0.5 -0.5 c 0 -0.277 0.223 -0.5 0.5 -0.5 c 0.277 0 0.5 0.223 0.5 0.5 m 0 0" fill="#695353" stroke="none" fill-rule="nonzero" fill-opacity="1"/><path d="m 15 16.5 c 0 0.277 -0.223 0.5 -0.5 0.5 c -0.277 0 -0.5 -0.223 -0.5 -0.5 c 0 -0.277 0.223 -0.5 0.5 -0.5 c 0.277 0 0.5 0.223 0.5 0.5 m 0 0" fill="#695353" stroke="none" fill-rule="nonzero" fill-opacity="1"/><path d="m 16 16.5 c 0 0.277 -0.223 0.5 -0.5 0.5 c -0.277 0 -0.5 -0.223 -0.5 -0.5 c 0 -0.277 0.223 -0.5 0.5 -0.5 c 0.277 0 0.5 0.223 0.5 0.5 m 0 0" fill="#695353" stroke="none" fill-rule="nonzero" fill-opacity="1"/><path d="m 15 17.5 c 0 0.277 -0.223 0.5 -0.5 0.5 c -0.277 0 -0.5 -0.223 -0.5 -0.5 c 0 -0.277 0.223 -0.5 0.5 -0.5 c 0.277 0 0.5 0.223 0.5 0.5 m 0 0" fill="#695353" stroke="none" fill-rule="nonzero" fill-opacity="1"/><path d="m 16 17.5 c 0 0.277 -0.223 0.5 -0.5 0.5 c -0.277 0 -0.5 -0.223 -0.5 -0.5 c 0 -0.277 0.223 -0.5 0.5 -0.5 c 0.277 0 0.5 0.223 0.5 0.5 m 0 0" fill="#695353" stroke="none" fill-rule="nonzero" fill-opacity="1"/><path d="m 15 18.5 c 0 0.277 -0.223 0.5 -0.5 0.5 c -0.277 0 -0.5 -0.223 -0.5 -0.5 c 0 -0.277 0.223 -0.5 0.5 -0.5 c 0.277 0 0.5 0.223 0.5 0.5 m 0 0" fill="#695353" stroke="none" fill-rule="nonzero" fill-opacity="1"/><path d="m 16 18.5 c 0 0.277 -0.223 0.5 -0.5 0.5 c -0.277 0 -0.5 -0.223 -0.5 -0.5 c 0 -0.277 0.223 -0.5 0.5 -0.5 c 0.277 0 0.5 0.223 0.5 0.5 m 0 0" fill="#695353" stroke="none" fill-rule="nonzero" fill-opacity="1"/></g></g></g><g><path d="m 40.03 7.531 c 3.712 4.084 5.969 9.514 5.969 15.469 0 12.703 -10.297 23 -23 23 c -5.954 0 -11.384 -2.256 -15.469 -5.969 4.178 4.291 10.01 6.969 16.469 6.969 c 12.703 0 23 -10.298 23 -23 0 -6.462 -2.677 -12.291 -6.969 -16.469 z" opacity="0.1"/></g></svg>

<svg xmlns="http://www.w3.org/2000/svg" viewBox="0 0 48 48"><defs><linearGradient id="linearGradient3764" x1="1" x2="47" gradientUnits="userSpaceOnUse" gradientTransform="matrix(0,-1,1,0,-1.5e-6,47.999998)"><stop stop-color="#e3544d" stop-opacity="1"/><stop offset="1" stop-color="#e6645f" stop-opacity="1"/></linearGradient><clipPath id="clipPath-781953493"><g transform="translate(0,-1004.3622)"><path d="m -24 13 c 0 1.105 -0.672 2 -1.5 2 -0.828 0 -1.5 -0.895 -1.5 -2 0 -1.105 0.672 -2 1.5 -2 0.828 0 1.5 0.895 1.5 2 z" transform="matrix(15.333333,0,0,11.5,414.99999,878.8622)" fill="#1890d0"/></g></clipPath><clipPath id="clipPath-796067502"><g transform="translate(0,-1004.3622)"><path d="m -24 13 c 0 1.105 -0.672 2 -1.5 2 -0.828 0 -1.5 -0.895 -1.5 -2 0 -1.105 0.672 -2 1.5 -2 0.828 0 1.5 0.895 1.5 2 z" transform="matrix(15.333333,0,0,11.5,414.99999,878.8622)" fill="#1890d0"/></g></clipPath></defs><g><path d="m 36.31 5 c 5.859 4.062 9.688 10.831 9.688 18.5 c 0 12.426 -10.07 22.5 -22.5 22.5 c -7.669 0 -14.438 -3.828 -18.5 -9.688 c 1.037 1.822 2.306 3.499 3.781 4.969 c 4.085 3.712 9.514 5.969 15.469 5.969 c 12.703 0 23 -10.298 23 -23 c 0 -5.954 -2.256 -11.384 -5.969 -15.469 c -1.469 -1.475 -3.147 -2.744 -4.969 -3.781 z m 4.969 3.781 c 3.854 4.113 6.219 9.637 6.219 15.719 c 0 12.703 -10.297 23 -23 23 c -6.081 0 -11.606 -2.364 -15.719 -6.219 c 4.16 4.144 9.883 6.719 16.219 6.719 c 12.703 0 23 -10.298 23 -23 c 0 -6.335 -2.575 -12.06 -6.719 -16.219 z" opacity="0.05"/><path d="m 41.28 8.781 c 3.712 4.085 5.969 9.514 5.969 15.469 c 0 12.703 -10.297 23 -23 23 c -5.954 0 -11.384 -2.256 -15.469 -5.969 c 4.113 3.854 9.637 6.219 15.719 6.219 c 12.703 0 23 -10.298 23 -23 c 0 -6.081 -2.364 -11.606 -6.219 -15.719 z" opacity="0.1"/><path d="m 31.25 2.375 c 8.615 3.154 14.75 11.417 14.75 21.13 c 0 12.426 -10.07 22.5 -22.5 22.5 c -9.708 0 -17.971 -6.135 -21.12 -14.75 a 23 23 0 0 0 44.875 -7 a 23 23 0 0 0 -16 -21.875 z" opacity="0.2"/></g><g><path d="m 24 1 c 12.703 0 23 10.297 23 23 c 0 12.703 -10.297 23 -23 23 -12.703 0 -23 -10.297 -23 -23 0 -12.703 10.297 -23 23 -23 z" fill="url(#linearGradient3764)" fill-opacity="1"/></g><g><g clip-path="url(#clipPath-781953493)"><g transform="translate(1,1)"><g opacity="0.1"><!-- color: #e6645f --><g><path d="m 14 12 l 20 0 c 1.105 0 2 0.895 2 2 l 0 20 c 0 1.105 -0.895 2 -2 2 l -20 0 c -1.105 0 -2 -0.895 -2 -2 l 0 -20 c 0 -1.105 0.895 -2 2 -2 m 0 0" fill="#000" stroke="none" fill-rule="nonzero" fill-opacity="1"/></g></g></g></g></g><g><g clip-path="url(#clipPath-796067502)"><!-- color: #e6645f --><g><path d="m 14 12 20 0 c 1.105 0 2 0.895 2 2 l 0 20 c 0 1.105 -0.895 2 -2 2 l -20 0 c -1.105 0 -2 -0.895 -2 -2 l 0 -20 c 0 -1.105 0.895 -2 2 -2 m 0 0" fill="#f9f9f9" fill-rule="nonzero" stroke="none" fill-opacity="1"/><path d="m 12.434,23 23.13,0 c 0.238,0 0.434,0.191 0.434,0.434 l 0,1.133 c 0,0.238 -0.188,0.43 -0.434,0.43 l -23.13,0 C 12.196,24.997 12,24.806 12,24.567 l 0,-1.133 C 12,23.192 12.195,23 12.434,23 m 0,0" fill="#695353" fill-rule="nonzero" stroke="none" fill-opacity="1"/><path d="m 15,29 0.996,0 0,2.988 -0.996,0 M 15,29" fill="#695353" fill-rule="nonzero" stroke="none" fill-opacity="1"/><path d="m 14 30 3 0 0 1 -3 0 m 0 -1" fill="#695353" fill-rule="nonzero" stroke="none" fill-opacity="1"/><path d="M 33,29.5 C 33,29.777 32.777,30 32.5,30 32.223,30 32,29.777 32,29.5 32,29.223 32.223,29 32.5,29 c 0.277,0 0.5,0.223 0.5,0.5 m 0,0" fill="#695353" fill-rule="nonzero" stroke="none" fill-opacity="1"/><path d="M 34,30.5 C 34,30.777 33.777,31 33.5,31 33.223,31 33,30.777 33,30.5 33,30.223 33.223,30 33.5,30 c 0.277,0 0.5,0.223 0.5,0.5 m 0,0" fill="#695353" fill-rule="nonzero" stroke="none" fill-opacity="1"/><path d="M 32,30.5 C 32,30.777 31.777,31 31.5,31 31.223,31 31,30.777 31,30.5 31,30.223 31.223,30 31.5,30 c 0.277,0 0.5,0.223 0.5,0.5 m 0,0" fill="#695353" fill-rule="nonzero" stroke="none" fill-opacity="1"/><path d="M 33,31.5 C 33,31.777 32.777,32 32.5,32 32.223,32 32,31.777 32,31.5 32,31.223 32.223,31 32.5,31 c 0.277,0 0.5,0.223 0.5,0.5 m 0,0" fill="#695353" fill-rule="nonzero" stroke="none" fill-opacity="1"/><path d="m 31 26 2 0 0 1 -2 0 m 0 -1" fill="#695353" fill-rule="nonzero" stroke="none" fill-opacity="1"/><path d="m 17 14 14 0 0 8 -14 0 m 0 -8" fill="#695353" fill-rule="nonzero" stroke="none" fill-opacity="1"/><path d="m 18 26 12 0 0 8 -12 0 m 0 -8" fill="#695353" fill-rule="nonzero" stroke="none" fill-opacity="1"/><path d="m 15,26 1.996,0 0,1 L 15,27 m 0,-1" fill="#695353" fill-rule="nonzero" stroke="none" fill-opacity="1"/><path d="M 33,16.5 C 33,16.777 32.777,17 32.5,17 32.223,17 32,16.777 32,16.5 32,16.223 32.223,16 32.5,16 c 0.277,0 0.5,0.223 0.5,0.5 m 0,0" fill="#695353" fill-rule="nonzero" stroke="none" fill-opacity="1"/><path d="M 34,16.5 C 34,16.777 33.777,17 33.5,17 33.223,17 33,16.777 33,16.5 33,16.223 33.223,16 33.5,16 c 0.277,0 0.5,0.223 0.5,0.5 m 0,0" fill="#695353" fill-rule="nonzero" stroke="none" fill-opacity="1"/><path d="M 33,17.5 C 33,17.777 32.777,18 32.5,18 32.223,18 32,17.777 32,17.5 32,17.223 32.223,17 32.5,17 c 0.277,0 0.5,0.223 0.5,0.5 m 0,0" fill="#695353" fill-rule="nonzero" stroke="none" fill-opacity="1"/><path d="M 34,17.5 C 34,17.777 33.777,18 33.5,18 33.223,18 33,17.777 33,17.5 33,17.223 33.223,17 33.5,17 c 0.277,0 0.5,0.223 0.5,0.5 m 0,0" fill="#695353" fill-rule="nonzero" stroke="none" fill-opacity="1"/><path d="M 33,18.5 C 33,18.777 32.777,19 32.5,19 32.223,19 32,18.777 32,18.5 32,18.223 32.223,18 32.5,18 c 0.277,0 0.5,0.223 0.5,0.5 m 0,0" fill="#695353" fill-rule="nonzero" stroke="none" fill-opacity="1"/><path d="M 34,18.5 C 34,18.777 33.777,19 33.5,19 33.223,19 33,18.777 33,18.5 33,18.223 33.223,18 33.5,18 c 0.277,0 0.5,0.223 0.5,0.5 m 0,0" fill="#695353" fill-rule="nonzero" stroke="none" fill-opacity="1"/><path d="M 15,16.5 C 15,16.777 14.777,17 14.5,17 14.223,17 14,16.777 14,16.5 14,16.223 14.223,16 14.5,16 c 0.277,0 0.5,0.223 0.5,0.5 m 0,0" fill="#695353" fill-rule="nonzero" stroke="none" fill-opacity="1"/><path d="M 16,16.5 C 16,16.777 15.777,17 15.5,17 15.223,17 15,16.777 15,16.5 15,16.223 15.223,16 15.5,16 c 0.277,0 0.5,0.223 0.5,0.5 m 0,0" fill="#695353" fill-rule="nonzero" stroke="none" fill-opacity="1"/><path d="M 15,17.5 C 15,17.777 14.777,18 14.5,18 14.223,18 14,17.777 14,17.5 14,17.223 14.223,17 14.5,17 c 0.277,0 0.5,0.223 0.5,0.5 m 0,0" fill="#695353" fill-rule="nonzero" stroke="none" fill-opacity="1"/><path d="M 16,17.5 C 16,17.777 15.777,18 15.5,18 15.223,18 15,17.777 15,17.5 15,17.223 15.223,17 15.5,17 c 0.277,0 0.5,0.223 0.5,0.5 m 0,0" fill="#695353" fill-rule="nonzero" stroke="none" fill-opacity="1"/><path d="M 15,18.5 C 15,18.777 14.777,19 14.5,19 14.223,19 14,18.777 14,18.5 14,18.223 14.223,18 14.5,18 c 0.277,0 0.5,0.223 0.5,0.5 m 0,0" fill="#695353" fill-rule="nonzero" stroke="none" fill-opacity="1"/><path d="M 16,18.5 C 16,18.777 15.777,19 15.5,19 15.223,19 15,18.777 15,18.5 15,18.223 15.223,18 15.5,18 c 0.277,0 0.5,0.223 0.5,0.5 m 0,0" fill="#695353" fill-rule="nonzero" stroke="none" fill-opacity="1"/></g></g></g><g><path d="m 40.03 7.531 c 3.712 4.084 5.969 9.514 5.969 15.469 0 12.703 -10.297 23 -23 23 c -5.954 0 -11.384 -2.256 -15.469 -5.969 4.178 4.291 10.01 6.969 16.469 6.969 c 12.703 0 23 -10.298 23 -23 0 -6.462 -2.677 -12.291 -6.969 -16.469 z" opacity="0.1"/></g></svg>
